svg/N_Arrows/32.svg

<?xml version="1.0" encoding="UTF-8" standalone="no"?>
<!-- Created with Inkscape (http://www.inkscape.org/) -->
<svg
   xmlns:dc="http://purl.org/dc/elements/1.1/"
   xmlns:cc="http://web.resource.org/cc/"
   xmlns:rdf="http://www.w3.org/1999/02/22-rdf-syntax-ns#"
   xmlns:svg="http://www.w3.org/2000/svg"
   xmlns="http://www.w3.org/2000/svg"
   xmlns:sodipodi="http://sodipodi.sourceforge.net/DTD/sodipodi-0.dtd"
   xmlns:inkscape="http://www.inkscape.org/namespaces/inkscape"
   width="744.09448819"
   height="1052.3622047"
   id="svg2"
   sodipodi:version="0.32"
   inkscape:version="0.44.1"
   sodipodi:docbase="F:\ROSA VENTI"
   sodipodi:docname="rosa14.svg"
   inkscape:export-filename="F:\ROSA VENTI\rosa13.png"
   inkscape:export-xdpi="300"
   inkscape:export-ydpi="300">
  <defs
     id="defs4" />
  <sodipodi:namedview
     id="base"
     pagecolor="#ffffff"
     bordercolor="#666666"
     borderopacity="1.0"
     inkscape:pageopacity="0.0"
     inkscape:pageshadow="2"
     inkscape:zoom="0.32472826"
     inkscape:cx="86.055427"
     inkscape:cy="464.90455"
     inkscape:document-units="px"
     inkscape:current-layer="layer1"
     showgrid="true"
     inkscape:window-width="956"
     inkscape:window-height="736"
     inkscape:window-x="251"
     inkscape:window-y="-13" />
  <metadata
     id="metadata7">
    <rdf:RDF>
      <cc:Work
         rdf:about="">
        <dc:format>image/svg+xml</dc:format>
        <dc:type
           rdf:resource="http://purl.org/dc/dcmitype/StillImage" />
      </cc:Work>
    </rdf:RDF>
  </metadata>
  <g
     inkscape:label="Livello 1"
     inkscape:groupmode="layer"
     id="layer1">
    <g
       id="g7226"
       transform="matrix(1.07605,0,0,1.112571,133.0512,-28.69421)">
      <g
         transform="translate(-181.6904,-72.3682)"
         id="g7113">
        <path
           style="fill:none;fill-rule:evenodd;stroke:black;stroke-width:68.01634216px;stroke-linecap:butt;stroke-linejoin:miter;stroke-opacity:1"
           d="M 390.49064,357.67909 L 424.12782,286.1908 L 455.20366,357.67909 L 455.20366,572.14396 L 424.12782,643.63225 L 390.49064,572.14396 L 390.49064,357.67909 L 390.49064,357.67909 L 390.49064,357.67909 z "
           id="path7090" />
        <path
           style="fill:none;fill-rule:evenodd;stroke:black;stroke-width:68.01634216px;stroke-linecap:butt;stroke-linejoin:miter;stroke-opacity:1"
           d="M 327.05829,496.34921 L 262.34527,459.19032 L 327.05829,424.86092 L 521.19735,424.86092 L 585.91037,459.19032 L 521.19735,496.34921 L 327.05829,496.34921 L 327.05829,496.34921 L 327.05829,496.34921 z "
           id="path7092" />
        <path
           style="fill:none;fill-rule:evenodd;stroke:black;stroke-width:1px;stroke-linecap:butt;stroke-linejoin:miter;stroke-opacity:1"
           d="M 378.27824,924.60277 L 378.79803,923.60277 L 379.27824,924.60277 L 379.27824,927.60277 L 378.79803,928.60277 L 378.27824,927.60277 L 378.27824,924.60277 L 378.27824,924.60277 L 378.27824,924.60277 z "
           id="path7098" />
        <path
           style="fill:none;fill-rule:evenodd;stroke:black;stroke-width:1px;stroke-linecap:butt;stroke-linejoin:miter;stroke-opacity:1"
           d="M 141.1569,893.80779 L 141.67669,892.80779 L 142.1569,893.80779 L 142.1569,896.80779 L 141.67669,897.80779 L 141.1569,896.80779 L 141.1569,893.80779 L 141.1569,893.80779 L 141.1569,893.80779 z "
           id="path7100" />
        <rect
           style="opacity:1;fill:black;fill-opacity:1;stroke:black;stroke-width:7.0999999;stroke-miterlimit:4;stroke-dasharray:none;stroke-opacity:1"
           id="rect7106"
           width="136.26778"
           height="50.04184"
           x="321.80753"
           y="448.78058" />
        <rect
           style="opacity:1;fill:black;fill-opacity:1;stroke:black;stroke-width:7.0999999;stroke-miterlimit:4;stroke-dasharray:none;stroke-opacity:1"
           id="rect7111"
           width="72.368202"
           height="44.652721"
           x="453.45605"
           y="438.00235" />
      </g>
      <flowRoot
         transform="translate(-370.2241,86.2562)"
         style="font-size:56px;font-family:Arial Black"
         id="flowRoot1988"
         xml:space="preserve"><flowRegion
           id="flowRegion1990"><rect
             style="font-size:56px;font-family:Arial Black"
             y="270.93362"
             x="321.42856"
             height="74.285713"
             width="68.571426"
             id="rect1992" /></flowRegion><flowPara
           id="flowPara1994">W</flowPara></flowRoot>      <flowRoot
         transform="translate(-96.74241,379.7446)"
         style="font-size:56px;font-family:Arial Black"
         id="flowRoot1980"
         xml:space="preserve"><flowRegion
           id="flowRegion1982"><rect
             style="font-size:56px;font-family:Arial Black"
             y="270.93362"
             x="321.42856"
             height="74.285713"
             width="68.571426"
             id="rect1984" /></flowRegion><flowPara
           id="flowPara1986">S</flowPara></flowRoot>      <flowRoot
         transform="translate(158.7781,88.73205)"
         style="font-size:56px;font-family:Arial Black"
         id="flowRoot2798"
         xml:space="preserve"><flowRegion
           id="flowRegion2800"><rect
             style="font-size:56px;font-family:Arial Black"
             y="270.93362"
             x="321.42856"
             height="74.285713"
             width="68.571426"
             id="rect2802" /></flowRegion><flowPara
           id="flowPara2804">E</flowPara></flowRoot>      <flowRoot
         transform="translate(-101.5087,-186.883)"
         style="font-size:56px;font-family:Arial Black"
         id="flowRoot2790"
         xml:space="preserve"><flowRegion
           id="flowRegion2792"><rect
             style="font-size:56px;font-family:Arial Black"
             y="270.93362"
             x="321.42856"
             height="74.285713"
             width="68.571426"
             id="rect2794" /></flowRegion><flowPara
           id="flowPara2796">N</flowPara></flowRoot>    </g>
  </g>
</svg>

<svg xmlns="http://www.w3.org/2000/svg" viewBox="0 0 744.09 1052.36" xmlns:xlink="http://www.w3.org/1999/xlink"><defs><path id="0" d="m321.43 270.93h68.57v74.28h-68.57z"/></defs><g transform="matrix(1.07605 0 0 1.11257 133.05-28.694)"><g transform="translate(-181.69-72.37)" stroke="#000"><g fill="none" fill-rule="evenodd"><g stroke-width="68.02"><path d="m390.49 357.68l33.637-71.49 31.08 71.49v214.46l-31.08 71.49-33.637-71.49v-214.46z"/><path d="m327.06 496.35l-64.713-37.16 64.713-34.33h194.14l64.713 34.33-64.713 37.16h-194.14z"/></g><path d="m378.28 924.6l.52-1 .48 1v3l-.48 1-.52-1v-3z"/><path d="m141.16 893.81l.52-1 .48 1v3l-.48 1-.52-1v-3z"/></g><g stroke-width="7.1"><path d="m321.81 448.78h136.27v50.04h-136.27z"/><path d="m453.46 438h72.37v44.653h-72.37z"/></g></g><g font-family="Arial Black" font-size="56"><flowRoot transform="translate(-370.22 86.26)"><flowRegion><use xlink:href="#0"/></flowRegion><flowPara>W</flowPara></flowRoot><flowRoot transform="translate(-96.74 379.74)"><flowRegion><use xlink:href="#0"/></flowRegion><flowPara>S</flowPara></flowRoot><flowRoot transform="translate(158.78 88.73)"><flowRegion><use xlink:href="#0"/></flowRegion><flowPara>E</flowPara></flowRoot><flowRoot transform="translate(-101.51-186.88)"><flowRegion><use xlink:href="#0"/></flowRegion><flowPara>N</flowPara></flowRoot></g></g></svg>
